images/skills_img-3.svg

<svg width="147" height="147" viewBox="0 0 147 147" fill="none" xmlns="http://www.w3.org/2000/svg">
<g clip-path="url(#clip0_9_62)">
<path d="M25.1795 3.876C20.3273 4.70862 16.6236 6.20159 12.317 9.04397C7.95292 11.9725 3.33046 16.8821 0.574206 21.6194L-0.0574341 22.6817L1.32069 23.2846C2.06718 23.6291 2.75624 23.7727 2.78495 23.6291C3.12948 22.653 6.25897 18.4612 8.1826 16.394C13.7525 10.5082 20.5283 7.12034 28.0793 6.45998L30.4336 6.25901V4.85217V3.44534L28.9406 3.47405C28.108 3.50276 26.414 3.67502 25.1795 3.876Z" fill="white"/>
<path d="M27.8496 15.5326C23.4281 15.992 19.8393 17.6859 16.1068 21.16C14.0971 22.9975 11.4844 26.4141 11.4844 27.1605C11.4844 27.4477 13.2645 28.4238 13.7238 28.4238C13.8387 28.4238 14.499 27.5912 15.1594 26.5863C18.1166 22.1074 23.2271 18.9205 28.3664 18.4324L30.29 18.2314L30.3762 16.9682C30.4336 16.2791 30.3762 15.6188 30.2326 15.5326C30.1178 15.4178 29.0268 15.4178 27.8496 15.5326Z" fill="white"/>
<path d="M48.0908 23.1697C35.6877 23.8875 24.5191 28.9119 15.791 37.6113C6.48867 46.9137 1.43555 59.1445 1.43555 72.3228C1.43555 86.8793 7.40742 100 18.375 109.618C31.3811 121.017 49.5264 124.663 66.1787 119.265C70.9734 117.686 78.1225 113.81 81.3955 110.968L82.2568 110.25L81.5391 109.762C79.0125 108.068 77.2324 105.168 77.2324 102.756C77.2324 99.5982 79.759 96.44 82.6301 96.0668C84.4389 95.8371 87.31 96.4113 90.2959 97.5885C92.3918 98.4498 92.5353 98.4498 92.9086 97.9904C93.1096 97.7033 93.3105 97.3014 93.3105 97.0717C93.3105 96.842 90.6117 93.9422 87.3387 90.6117C79.2709 82.4291 75.4236 78.1512 74.4475 76.3137C73.5 74.4762 73.3564 71.6625 74.1603 70.1695C75.1652 68.2459 77.8354 66.6094 79.9313 66.6094C80.3332 66.6094 80.6777 66.5232 80.6777 66.3797C80.6777 66.2648 80.2758 65.4035 79.8164 64.4847C78.8402 62.5898 78.7541 61.384 79.3857 59.2594C80.2758 56.2734 83.032 54.2062 86.4199 54.034C88.6307 53.9478 89.3197 54.2924 92.4492 57.106C93.5402 58.0822 94.459 58.7426 94.459 58.5416C94.459 57.6803 95.0906 55.9863 95.7797 54.9814L96.4975 53.8904L95.0332 50.8471C90.2959 41.0566 82.5152 33.2185 72.6961 28.2803C69.0785 26.4715 63.8818 24.6627 60.293 24.0023C57.6803 23.5142 51.8232 22.94 50.3877 23.0262C49.9283 23.0549 48.8947 23.1123 48.0908 23.1697ZM61.0107 27.1318C64.8867 28.0219 71.318 30.8068 71.6912 31.7543C71.7773 32.0127 61.2691 51.3639 60.7236 51.9094C60.6662 51.9668 60.1207 51.7371 59.4891 51.4213C58.3406 50.8471 55.5844 50.158 53.0578 49.8135L51.6797 49.6412V37.9846V26.3279L55.3547 26.5002C57.3645 26.5863 59.9197 26.8734 61.0107 27.1318ZM56.6754 53.4023C60.1207 54.2637 62.6473 55.7566 65.4896 58.5703C69.4805 62.5037 71.2893 66.8965 71.2893 72.4951C71.2605 75.5672 71.0309 76.8879 69.8824 79.7877C67.8152 85.0705 63.1641 89.3484 57.508 91.2433C55.5844 91.875 54.7518 91.9611 51.6797 91.9611C48.6076 91.9611 47.775 91.875 45.8514 91.2433C36.7787 88.2287 31.0078 79.4144 32.1275 70.2269C32.7018 65.4609 34.3957 62.073 37.8984 58.5703C40.6547 55.7853 43.1812 54.2924 46.5691 53.4023C49.4689 52.6558 53.7469 52.6558 56.6754 53.4023Z" fill="white"/>
<path d="M47.1146 55.4121C42.3773 56.6754 38.042 60.2356 35.9461 64.6571C34.568 67.5282 34.166 69.2795 34.166 72.5526C34.166 79.1561 37.8984 85.1854 43.8416 88.1426C46.4543 89.4059 48.5789 89.894 51.6797 89.894C56.7041 89.894 60.293 88.401 63.9106 84.8409C67.6143 81.1659 69.1934 77.4334 69.1934 72.3516C69.1934 69.3369 68.6766 67.1262 67.241 64.3125C65.9203 61.6137 62.9344 58.5129 60.2643 57.0487C56.417 54.8953 51.4213 54.2924 47.1146 55.4121ZM55.527 64.5996C57.307 65.4897 59.2594 67.6717 59.8336 69.3944C61.8147 75.1653 57.709 81.051 51.6797 81.051C48.2344 81.051 45.4207 79.3284 43.9277 76.2563C42.6645 73.7297 42.6932 70.8012 43.9564 68.3033C44.6455 66.8965 47.1146 64.7432 48.6076 64.1977C50.4451 63.5086 53.7756 63.7096 55.527 64.5996Z" fill="white"/>
<path d="M101.35 55.326C99.627 55.8715 98.4785 57.2496 98.4785 58.7713C98.4785 59.9197 99.4834 61.2692 106.92 70.1983C113.092 77.577 115.332 80.5629 115.016 80.8787C114.93 80.9649 114.126 80.4768 113.207 79.7877C109.963 77.3473 96.7271 65.6332 90.8414 59.9772C89.5781 58.7426 88.1713 57.6516 87.7406 57.5367C86.5635 57.2496 84.4389 58.2258 83.635 59.4029C82.6875 60.8098 82.7449 62.4176 83.8072 64.0828C85.0705 66.0639 88.602 69.9686 95.6074 77.0889C102.469 84.0944 105.082 86.8793 105.082 87.31C105.082 88.6881 100.144 85.0418 89.0039 75.3949C84.6111 71.5764 83.1182 70.4567 81.9984 70.1695C80.8787 69.8824 79.357 70.2844 78.3809 71.0883C77.6918 71.6912 77.5195 72.0645 77.5195 72.9545C77.5195 73.5861 77.7205 74.5049 77.9789 75.0217C78.6393 76.285 81.8549 79.7877 90.2385 88.4297C94.9184 93.2244 97.9617 96.6123 99.0814 98.2488C102.613 103.388 102.785 105.254 99.8566 105.771C98.8805 105.943 98.4498 105.771 95.4064 103.962C90.9563 101.35 87.4822 99.9141 85.0131 99.7131L83.0895 99.5408L82.1707 100.603C81.4529 101.436 81.252 101.924 81.252 102.871C81.252 104.537 82.0271 105.656 84.324 107.264C87.0803 109.188 88.8316 110.652 91.1572 112.863C93.368 114.959 94.4877 115.59 99.3398 117.543C104.709 119.696 110.279 120.816 118.72 121.419C120.787 121.562 122.854 121.849 123.313 122.022C124.462 122.452 125.467 123.428 125.467 124.117C125.467 124.519 125.61 124.605 125.955 124.491C126.242 124.376 131.094 121.447 136.75 117.945C144.674 113.064 147 111.513 146.885 111.14C146.799 110.882 146.139 108.613 145.421 106.087C143.526 99.5408 141.602 94.4877 138.674 88.5733C136.434 84.0082 135.487 82.4578 130.405 75.3088C127.247 70.8586 123.543 65.6045 122.194 63.6235C120.672 61.4414 119.38 59.8336 118.863 59.5752C117.255 58.7426 115.619 59.1445 115.102 60.494C114.7 61.585 116.078 64.2551 120.328 70.6289C123.543 75.3949 124.95 78.1225 124.491 78.6106C123.83 79.2709 119.552 74.7633 111.743 65.2026C104.336 56.1012 104.192 55.9576 103.158 55.527C102.182 55.0963 102.039 55.0963 101.35 55.326Z" fill="white"/>
<path d="M69.5379 125.065C65.6619 127.879 60.7523 129.199 56.3596 128.596C55.1824 128.424 53.8904 128.166 53.5172 128.022C52.9142 127.821 52.7707 127.879 52.541 128.51C51.8232 130.348 51.8519 130.549 52.8855 130.893C56.1873 131.956 60.7523 131.956 64.2551 130.893C66.8391 130.089 70.7725 128.022 72.3516 126.644L73.6435 125.496L72.6387 124.519L71.6338 123.543L69.5379 125.065Z" fill="white"/>
<path d="M78.6967 133.247C70.3131 139.822 59.4317 142.234 50.4738 139.506C49.4977 139.219 48.665 139.018 48.665 139.047C48.4641 139.334 47.6602 141.631 47.7176 141.688C47.775 141.746 48.5215 141.976 49.3828 142.263C57.2783 144.617 66.0926 143.67 74.1029 139.593C76.8305 138.186 81.2233 135.229 82.2281 134.109C82.7737 133.506 82.7737 133.477 81.9697 132.645C81.5104 132.156 80.9936 131.783 80.85 131.812C80.6777 131.812 79.7016 132.472 78.6967 133.247Z" fill="white"/>
</g>
<defs>
<clipPath id="clip0_9_62">
<rect width="147" height="147" fill="white"/>
</clipPath>
</defs>
</svg>

<svg width="147" height="147" fill="none" xmlns="http://www.w3.org/2000/svg"><g clip-path="url(#clip0_9_62)" fill="#fff"><path d="M25.18 3.876c-4.853.833-8.556 2.326-12.863 5.168C7.953 11.972 3.33 16.882.574 21.619l-.631 1.063 1.378.603c.746.344 1.435.488 1.464.344.344-.976 3.474-5.168 5.398-7.235 5.57-5.886 12.345-9.274 19.896-9.934l2.355-.201V3.445l-1.493.03c-.833.028-2.527.2-3.761.401zm2.67 11.657c-4.422.459-8.01 2.153-11.743 5.627-2.01 1.837-4.623 5.254-4.623 6 0 .288 1.78 1.264 2.24 1.264.115 0 .775-.833 1.435-1.838 2.958-4.479 8.068-7.665 13.207-8.154l1.924-.2.086-1.264c.058-.689 0-1.35-.143-1.435-.115-.115-1.206-.115-2.383 0zm20.24 7.637c-12.402.717-23.57 5.742-32.299 14.441C6.489 46.914 1.436 59.145 1.436 72.323c0 14.556 5.971 27.677 16.939 37.295 13.006 11.399 31.151 15.045 47.804 9.647 4.794-1.579 11.944-5.455 15.216-8.297l.862-.718-.718-.488c-2.526-1.694-4.307-4.594-4.307-7.006 0-3.158 2.527-6.316 5.398-6.69 1.809-.229 4.68.345 7.666 1.522 2.096.862 2.24.862 2.613.402.2-.287.401-.689.401-.918 0-.23-2.698-3.13-5.971-6.46-8.068-8.183-11.915-12.46-12.891-14.298-.948-1.838-1.092-4.651-.288-6.144 1.005-1.924 3.675-3.56 5.771-3.56.402 0 .747-.087.747-.23 0-.115-.402-.977-.862-1.895-.976-1.895-1.062-3.101-.43-5.226.89-2.986 3.646-5.053 7.034-5.225 2.21-.086 2.9.258 6.03 3.072 1.09.976 2.009 1.637 2.009 1.436 0-.862.632-2.556 1.32-3.56l.719-1.092-1.465-3.043c-4.737-9.79-12.518-17.629-22.337-22.567-3.617-1.809-8.814-3.617-12.403-4.278-2.613-.488-8.47-1.062-9.905-.976-.46.029-1.493.086-2.297.144zm12.92 3.962c3.877.89 10.308 3.675 10.681 4.622.086.259-10.422 19.61-10.967 20.155-.058.058-.603-.172-1.235-.488-1.148-.574-3.905-1.263-6.431-1.608l-1.378-.172V26.328l3.675.172c2.01.086 4.565.373 5.656.632zm-4.335 26.27c3.446.862 5.972 2.355 8.815 5.168 3.99 3.934 5.8 8.327 5.8 13.925-.03 3.072-.26 4.393-1.408 7.293-2.067 5.282-6.718 9.56-12.374 11.455-1.924.632-2.756.718-5.828.718-3.072 0-3.905-.086-5.829-.718-9.072-3.014-14.843-11.829-13.724-21.016.575-4.766 2.269-8.154 5.771-11.657 2.757-2.785 5.283-4.278 8.671-5.168 2.9-.746 7.178-.746 10.106 0z"/><path d="M47.115 55.412c-4.738 1.263-9.073 4.824-11.169 9.245-1.378 2.871-1.78 4.623-1.78 7.896a17.402 17.402 0 009.676 15.59c2.612 1.263 4.737 1.751 7.838 1.751 5.024 0 8.613-1.493 12.23-5.053 3.704-3.675 5.283-7.408 5.283-12.49 0-3.014-.516-5.225-1.952-8.038-1.32-2.7-4.307-5.8-6.977-7.264-3.847-2.154-8.843-2.757-13.15-1.637zm8.412 9.188c1.78.89 3.732 3.072 4.307 4.794 1.98 5.771-2.125 11.657-8.154 11.657-3.446 0-6.26-1.723-7.752-4.795a8.819 8.819 0 01.028-7.953c.69-1.406 3.159-3.56 4.652-4.105 1.837-.69 5.168-.488 6.919.402zm45.823-9.274c-1.723.545-2.871 1.924-2.871 3.445 0 1.149 1.004 2.498 8.441 11.427 6.172 7.379 8.412 10.365 8.096 10.68-.086.087-.89-.401-1.809-1.09-3.244-2.44-16.48-14.155-22.366-19.81-1.263-1.235-2.67-2.326-3.1-2.441-1.177-.287-3.302.689-4.106 1.866-.948 1.407-.89 3.015.172 4.68 1.263 1.98 4.795 5.886 11.8 13.006 6.862 7.005 9.475 9.79 9.475 10.221 0 1.378-4.938-2.268-16.078-11.915-4.393-3.819-5.886-4.938-7.006-5.225-1.12-.288-2.641.114-3.617.918-.69.603-.862.977-.862 1.867 0 .631.201 1.55.46 2.067.66 1.263 3.876 4.766 12.26 13.408 4.68 4.794 7.723 8.182 8.842 9.819 3.532 5.139 3.704 7.005.776 7.522-.977.172-1.407 0-4.45-1.809-4.45-2.612-7.925-4.048-10.394-4.249l-1.924-.172-.918 1.062c-.718.833-.919 1.321-.919 2.268 0 1.666.775 2.785 3.072 4.393 2.756 1.924 4.508 3.388 6.833 5.599 2.211 2.096 3.33 2.727 8.183 4.68 5.369 2.153 10.939 3.273 19.38 3.876 2.067.143 4.134.43 4.593.603 1.149.43 2.154 1.406 2.154 2.095 0 .402.143.488.488.374.287-.115 5.139-3.044 10.795-6.546 7.924-4.881 10.25-6.432 10.135-6.805-.086-.258-.746-2.527-1.464-5.053-1.895-6.546-3.819-11.6-6.747-17.514-2.24-4.565-3.187-6.115-8.269-13.264-3.158-4.45-6.862-9.704-8.211-11.685-1.522-2.183-2.814-3.79-3.331-4.049-1.608-.832-3.244-.43-3.761.919-.402 1.091.976 3.761 5.226 10.135 3.215 4.766 4.622 7.493 4.163 7.982-.661.66-4.939-3.848-12.748-13.408-7.407-9.102-7.551-9.245-8.585-9.676-.976-.43-1.119-.43-1.808-.201zm-31.812 69.739c-3.876 2.814-8.786 4.134-13.178 3.531-1.178-.172-2.47-.43-2.843-.574-.603-.201-.746-.143-.976.488-.718 1.838-.69 2.039.345 2.383 3.301 1.063 7.866 1.063 11.37 0 2.583-.804 6.516-2.871 8.096-4.249l1.291-1.148-1.004-.977-1.005-.976-2.096 1.522zm9.159 8.182c-8.384 6.575-19.265 8.987-28.223 6.259-.976-.287-1.809-.488-1.809-.459-.2.287-1.005 2.584-.947 2.641.057.058.803.288 1.665.575 7.895 2.354 16.71 1.407 24.72-2.67 2.728-1.407 7.12-4.364 8.125-5.484.546-.603.546-.632-.258-1.464-.46-.489-.976-.862-1.12-.833-.172 0-1.148.66-2.153 1.435z"/></g><defs><clipPath id="clip0_9_62"><path fill="#fff" d="M0 0h147v147H0z"/></clipPath></defs></svg>
